!!!COM: Hummel, Johann Nepomuk
!!!CDT: 1778/11/14/-1837/10/17/
!!!OTL: Prelude in A-flat Major, Op. 67, No. 17
!!!OPS: Op. 67
!!!ONM: No. 17
!!!OMD: Allgero moderato
!!!ODT: 1815///
!!!AIN: piano
**kern	**kern	**dynam
*staff2	*staff1	*staff1/2
*Ipiano	*Ipiano	*Ipiano
*clefF4	*clefG2	*clefG2
*k[b-e-a-d-]	*k[b-e-a-d-]	*k[b-e-a-d-]
*A-:	*A-:	*A-:
*met(C)	*met(C)	*met(C)
*M4/4	*M4/4	*M4/4
*MM120	*MM120	*MM120
=1-	=1-	=1-
*^	*^	*
[2E-/	2..AA-\	8r	8r	p
.	.	8c/L	(4.c\	.
.	.	8e-/	.	.
.	.	8a-/J	.	.
8E-/L]	.	[2cc/)	8r	.
8En/	.	.	(8g\L	.
8F/	.	.	8a-\	.
8G-/J	8AAn\	.	8e-\J	.
=2	=2	=2	=2	=2
&(8F/L&)	[2BB-\	8cc/]	[2d-\)	.
8A-/	.	(8cc/L	.	.
8Gn/	.	8b-/	.	.
8F/J	.	8a-/J	.	.
&([2G/&)	8BB-\L]	[2b-/)	8d-\L]	.
.	8D-\	.	(8f\	.
.	8C\	.	8e-\	.
.	8BB-\J	.	8d-\J	.
=3	=3	=3	=3	=3
8G/L]	&([2C\&)	8b-/]	2e-\)	<
8G/	.	(8b-/L	.	.
8A-/	.	8ee-/	.	.
8B-/J	.	8g/J	.	.
&([2c/&)	8C\L]	8r	2a-\)	.
.	8E-\	(8cc/L	.	.
.	8D-\	8dd-/	.	.
.	8C\J	8ee-/J	.	.
=4	=4	=4	=4	=4
8c/L]	&(2D-\&)	[2ff/)	8a-\L	.
8An/	.	.	(8cc\	.
8B-/	.	.	8dd-\	.
8c/J	.	.	8an\J	.
8r	&(8d-\L&)	8ff/L]	8b-\L)	.
8e-/L	8c\	(8aa-/	8cc\J	.
8d-/	8B-\	8gg/	[4dd-\	.
8c''/J	8A-\J	8ff/J	.	.
=5	=5	=5	=5	=5
8B-/L	8G\L	4.ee-/)	8dd-\L]	f
8d-/J	8B-\	.	8g\J	.
2c/	8A-\	.	4.a-\	.
.	8G\J	8ff/	.	.
.	8F\L	4.dd-/	.	.
.	8A-\	.	8f\	.
[4B-/	8G\	.	[4g\	.
.	8F\J	(8gg/	.	.
=6	=6	=6	=6	=6
4B-/]	8En\L	4.cc/)	8g\L]	.
.	8G\	.	8en\	.
8A-/	&(8F\J&)	.	8f\J	.
8f\	8r	([8aa-/	8cc\	p
8dn\L	2r	8aa-/L]	8cc-\L	.
8e-\	.	8gg/	8b-\	.
8c\	.	8gg-/	8an\	.
8d-\J	.	8ff/J	8a-\J	.
*v	*v	*	*	*
=7	=7	=7	=7
8An\L	8cc/ 8ee-/L	8g-\L	.
8B-\	[8b-/ 8ddn/	8f\	.
8Gn\	8b-/] 8dd-/	8f-\	<
8A-\J	8a-/ 8cc/J	8e-\J	.
8En\L	8gn/ 8b-/L	8d-\L	.
8F\	8fn/ 8a-/	8c\	.
8C\	8en/ 8g/	8B-\	.
8D-\J	8f/J	8A-\J	.
*	*v	*v	*
*	*clefF4	*clefF4
=8	=8	=8
8AAn/L	8G-\ 8c\ 8e-\L	.
8BB-/	8F\ [8B-\ 8dn\	.
8EEn/	8Gn\ 8B-\] 8d-\	.
&(8FF/J&)	8A-\ 8c\J)	.
4DD-''/	4F''\ 4A-''\ 4B-''\	f
4DDn''/	4F''\ 4A-''\ 4c-''\	.
=9	=9	=9
*	*^	*
2EE-/	2r	2E-\ 2A-\ 2cn\	.
2EE-/	(4c/	2D-\ 2G\	mf
*	*v	*v	*
*	*^	*
.	8.B-/L	.	.
.	16A-/Jk)	.	.
*	*v	*v	*
=10	=10	=10
*^	*	*
8r	1AAA-	4r	.
16CC/LL	.	.	.
16EE-/JJ	.	.	.
2AA-/	.	16r	.
.	.	16C/LL	.
.	.	16E-/	.
.	.	16A-/	.
.	.	[[16c/	.
.	.	[[16A-/	.
.	.	[[16E-/	.
.	.	[16C/JJ	.
(12AA-/L	.	4C\_ 4E-\_ 4A-\_ 4c\_	.
12EE-/	.	.	.
12CC/J)	.	.	.
*v	*v	*	*
=11	=11	=11
&(1AAA-&)	1C] 1E-] 1A-] 1c]	.
==	==	==
*-	*-	*-
!!!ENC: Craig Stuart Sapp
!!!EED: 2008/06/13/
!!!EEV: 2008/06/13/
!!!YEC: Copyright 2008 by Craig Stuart Sapp
!!!YEN: United States of America
